; generated by PrusaSlicer 2.3.1+win64 on 2021-08-20 at 23:18:10 UTC

; 

; external perimeters extrusion width = 0.45mm
; perimeters extrusion width = 0.45mm
; infill extrusion width = 0.45mm
; solid infill extrusion width = 0.45mm
; top infill extrusion width = 0.40mm
; first layer extrusion width = 0.42mm

M73 P0 R81
M73 Q0 S81
M201 X1000 Y1000 Z200 E5000 ; sets maximum accelerations, mm/sec^2
M203 X200 Y200 Z12 E120 ; sets maximum feedrates, mm/sec
M204 P1250 R1250 T1250 ; sets acceleration (P, T) and retract acceleration (R), mm/sec^2
M205 X8.00 Y8.00 Z0.40 E4.50 ; sets the jerk limits, mm/sec
M205 S0 T0 ; sets the minimum extruding and travel feed rate, mm/sec
M107
;TYPE:Custom
M862.3 P "MK3S" ; printer model check
M862.1 P0.4 ; nozzle diameter check
M115 U3.9.3 ; tell printer latest fw version
G90 ; use absolute coordinates
M83 ; extruder relative mode
M104 S215 ; set extruder temp
M140 S60 ; set bed temp
M190 S60 ; wait for bed temp
M109 S215 ; wait for extruder temp
G28 W ; home all without mesh bed level
G80 ; mesh bed leveling
G1 Y-3.0 F1000.0 ; go outside print area
G92 E0.0
G1 X60.0 E9.0 F1000.0 ; intro line
G1 X100.0 E12.5 F1000.0 ; intro line
G92 E0.0
M221 S95

; Don't change E values below. Excessive value can damage the printer.
M907 E430 ; set extruder motor current
G21 ; set units to millimeters
G90 ; use absolute coordinates
M83 ; use relative distances for extrusion
M900 K0.05 ; Filament gcode LA 1.5
M900 K30 ; Filament gcode LA 1.0
;LAYER_CHANGE
;Z:0.2
;HEIGHT:0.2
;BEFORE_LAYER_CHANGE
G92 E0.0
;0.2


G1 E-0.80000 F2100.000
G1 Z0.400 F10800.000
;AFTER_LAYER_CHANGE
;0.2
G1 X94.580 Y86.489
G1 Z0.200
G1 E0.80000 F2100.000
M204 S1000
;TYPE:Skirt
;WIDTH:0.42
G1 F1200.000
G1 X95.967 Y85.868 E0.04763
G1 X97.052 Y85.588 E0.03515
G1 X98.286 Y85.478 E0.03885
G1 X151.674 Y85.478 E1.67393
G1 X152.967 Y85.592 E0.04070
G1 X154.226 Y85.930 E0.04088
G1 X155.404 Y86.480 E0.04076
G1 X156.488 Y87.244 E0.04159
G1 X157.389 Y88.149 E0.04004
G1 X158.146 Y89.238 E0.04159
G1 X158.691 Y90.422 E0.04087
G1 X159.038 Y91.819 E0.04514
G1 X159.127 Y92.926 E0.03479
G1 X159.127 Y117.065 E0.75687
G1 X159.034 Y118.219 E0.03629
G1 X158.675 Y119.621 E0.04538
G1 X158.032 Y120.947 E0.04621
G1 X157.384 Y121.857 E0.03503
G1 X156.600 Y122.653 E0.03503
G1 X155.420 Y123.511 E0.04573
G1 X154.033 Y124.132 E0.04763
G1 X152.948 Y124.412 E0.03515
G1 X151.714 Y124.522 E0.03885
G1 X98.231 Y124.520 E1.67691
G1 X97.044 Y124.410 E0.03737
G1 X95.959 Y124.130 E0.03515
G1 X94.590 Y123.516 E0.04704
G1 X93.384 Y122.637 E0.04679
G1 X92.604 Y121.842 E0.03492
G1 X91.884 Y120.815 E0.03933
G1 X91.265 Y119.436 E0.04740
G1 X90.984 Y118.347 E0.03527
G1 X90.874 Y117.151 E0.03766
G1 X90.880 Y92.749 E0.76511
G1 X90.987 Y91.638 E0.03498
G1 X91.268 Y90.553 E0.03515
G1 X91.885 Y89.185 E0.04704
G1 X92.599 Y88.164 E0.03909
G1 X93.343 Y87.404 E0.03333
G1 X94.532 Y86.525 E0.04636
; printing object NanoHolder.STL id:0 copy 0
;WIPE_START
G1 F8640.000
G1 X95.967 Y85.868 E-0.36433
G1 X97.052 Y85.588 E-0.25886
G1 X97.642 Y85.536 E-0.13682
;WIPE_END
G1 E-0.04000 F2100.000
G1 Z0.600 F10800.000
G1 X96.185 Y89.220
G1 Z0.200
M73 P0 R80
G1 E0.80000 F2100.000
;TYPE:Perimeter
G1 F1200.000
G1 X96.863 Y88.904 E0.02345
G1 X97.585 Y88.710 E0.02345
G1 X98.364 Y88.642 E0.02453
G1 X151.636 Y88.642 E1.67028
G1 X152.415 Y88.710 E0.02453
G1 X153.137 Y88.904 E0.02345
G1 X153.815 Y89.220 E0.02345
G1 X154.428 Y89.649 E0.02345
G1 X154.956 Y90.177 E0.02345
G1 X155.385 Y90.790 E0.02345
G1 X155.701 Y91.468 E0.02345
G1 X155.895 Y92.190 E0.02345
G1 X155.963 Y92.969 E0.02453
G1 X155.963 Y117.031 E0.75442
G1 X155.895 Y117.810 E0.02453
G1 X155.701 Y118.532 E0.02345
G1 X155.385 Y119.210 E0.02345
G1 X154.956 Y119.823 E0.02345
G1 X154.428 Y120.351 E0.02345
G1 X153.815 Y120.780 E0.02345
G1 X153.137 Y121.096 E0.02345
G1 X152.415 Y121.290 E0.02345
G1 X151.636 Y121.358 E0.02453
G1 X98.364 Y121.358 E1.67028
G1 X97.585 Y121.290 E0.02453
G1 X96.863 Y121.096 E0.02345
G1 X96.185 Y120.780 E0.02345
G1 X95.572 Y120.351 E0.02345
G1 X95.044 Y119.823 E0.02345
G1 X94.615 Y119.210 E0.02345
G1 X94.299 Y118.532 E0.02345
G1 X94.105 Y117.810 E0.02345
G1 X94.037 Y117.031 E0.02453
G1 X94.037 Y92.969 E0.75442
G1 X94.105 Y92.190 E0.02453
G1 X94.299 Y91.468 E0.02345
G1 X94.615 Y90.790 E0.02345
G1 X95.044 Y90.177 E0.02345
G1 X95.572 Y89.649 E0.02345
G1 X96.136 Y89.254 E0.02157
G1 X95.920 Y88.945 F10800.000
;TYPE:External perimeter
G1 F1200.000
G1 X95.996 Y88.892 E0.00292
G1 X96.733 Y88.548 E0.02551
G1 X97.519 Y88.337 E0.02551
G1 X98.348 Y88.265 E0.02608
G1 X151.652 Y88.265 E1.67132
G1 X152.481 Y88.337 E0.02608
G1 X153.267 Y88.548 E0.02551
G1 X154.004 Y88.892 E0.02551
G1 X154.671 Y89.359 E0.02551
G1 X155.246 Y89.934 E0.02551
G1 X155.713 Y90.601 E0.02551
G1 X156.057 Y91.338 E0.02552
G1 X156.268 Y92.124 E0.02551
G1 X156.340 Y92.953 E0.02608
G1 X156.340 Y117.047 E0.75546
G1 X156.268 Y117.876 E0.02608
G1 X156.057 Y118.662 E0.02551
G1 X155.713 Y119.399 E0.02552
G1 X155.246 Y120.066 E0.02551
G1 X154.671 Y120.641 E0.02551
G1 X154.004 Y121.108 E0.02551
G1 X153.267 Y121.452 E0.02551
G1 X152.481 Y121.663 E0.02551
G1 X151.652 Y121.735 E0.02608
G1 X98.348 Y121.735 E1.67132
G1 X97.519 Y121.663 E0.02608
G1 X96.733 Y121.452 E0.02551
G1 X95.996 Y121.108 E0.02551
G1 X95.329 Y120.641 E0.02551
G1 X94.754 Y120.066 E0.02551
G1 X94.287 Y119.399 E0.02551
G1 X93.943 Y118.662 E0.02551
G1 X93.732 Y117.876 E0.02551
G1 X93.660 Y117.047 E0.02608
G1 X93.660 Y92.953 E0.75546
M73 Q0 S80
G1 X93.732 Y92.124 E0.02608
G1 X93.943 Y91.338 E0.02551
G1 X94.287 Y90.601 E0.02551
G1 X94.754 Y89.934 E0.02551
G1 X95.329 Y89.359 E0.02551
G1 X95.870 Y88.980 E0.02072
G1 X96.005 Y88.982 F10800.000
;WIPE_START
G1 F8640.000
G1 X95.996 Y88.892 E-0.03533
G1 X96.733 Y88.548 E-0.18790
G1 X97.519 Y88.337 E-0.18790
G1 X98.348 Y88.265 E-0.19205
G1 X99.027 Y88.265 E-0.15683
;WIPE_END
G1 E-0.04000 F2100.000
G1 Z0.600 F10800.000
G1 X155.341 Y90.963
G1 Z0.200
G1 E0.80000 F2100.000
;TYPE:Solid infill
;WIDTH:0.420993
G1 F1200.000
G1 X154.242 Y89.864 E0.04884
G1 X153.673 Y89.466 E0.02185
G1 X153.004 Y89.161 E0.02310
G1 X155.444 Y91.601 E0.10846
G1 X155.622 Y92.313 E0.02308
G1 X152.292 Y88.983 E0.14803
G1 X151.706 Y88.932 E0.01849
G1 X155.673 Y92.899 E0.17635
G1 X155.680 Y93.441 E0.01704
G1 X151.164 Y88.925 E0.20077
G1 X150.630 Y88.925 E0.01681
G1 X155.680 Y93.975 E0.22454
G1 X155.680 Y94.510 E0.01681
G1 X150.095 Y88.925 E0.24831
G1 X149.560 Y88.925 E0.01681
G1 X155.680 Y95.045 E0.27208
G1 X155.680 Y95.579 E0.01681
G1 X149.026 Y88.925 E0.29585
G1 X148.491 Y88.925 E0.01681
G1 X155.680 Y96.114 E0.31962
G1 X155.680 Y96.649 E0.01681
G1 X147.956 Y88.925 E0.34340
G1 X147.421 Y88.925 E0.01681
G1 X155.680 Y97.184 E0.36717
G1 X155.680 Y97.718 E0.01681
G1 X146.887 Y88.925 E0.39094
G1 X146.352 Y88.925 E0.01681
G1 X155.680 Y98.253 E0.41471
G1 X155.680 Y98.788 E0.01681
G1 X145.817 Y88.925 E0.43848
G1 X145.283 Y88.925 E0.01681
G1 X155.680 Y99.322 E0.46225
G1 X155.680 Y99.857 E0.01681
G1 X144.748 Y88.925 E0.48602
G1 X144.213 Y88.925 E0.01681
G1 X155.680 Y100.392 E0.50979
G1 X155.680 Y100.926 E0.01681
G1 X143.679 Y88.925 E0.53356
G1 X143.144 Y88.925 E0.01681
G1 X155.680 Y101.461 E0.55733
G1 X155.680 Y101.996 E0.01681
G1 X142.609 Y88.925 E0.58110
M73 P1 R80
M73 Q1 S80
G1 X142.075 Y88.925 E0.01681
G1 X155.680 Y102.530 E0.60487
G1 X155.680 Y103.065 E0.01681
G1 X141.540 Y88.925 E0.62865
G1 X141.005 Y88.925 E0.01681
G1 X155.680 Y103.600 E0.65242
G1 X155.680 Y104.134 E0.01681
G1 X140.471 Y88.925 E0.67619
G1 X139.936 Y88.925 E0.01681
G1 X155.680 Y104.669 E0.69996
G1 X155.680 Y105.204 E0.01681
G1 X139.401 Y88.925 E0.72373
G1 X138.867 Y88.925 E0.01681
G1 X155.680 Y105.738 E0.74750
G1 X155.680 Y106.273 E0.01681
G1 X138.332 Y88.925 E0.77127
G1 X137.797 Y88.925 E0.01681
G1 X155.680 Y106.808 E0.79504
G1 X155.680 Y107.342 E0.01681
G1 X137.263 Y88.925 E0.81881
G1 X136.728 Y88.925 E0.01681
G1 X155.680 Y107.877 E0.84258
G1 X155.680 Y108.412 E0.01681
G1 X136.193 Y88.925 E0.86635
G1 X135.659 Y88.925 E0.01681
G1 X155.680 Y108.946 E0.89013
G1 X155.680 Y109.481 E0.01681
G1 X135.124 Y88.925 E0.91390
G1 X134.589 Y88.925 E0.01681
G1 X155.680 Y110.016 E0.93767
G1 X155.680 Y110.550 E0.01681
G1 X134.055 Y88.925 E0.96144
G1 X133.520 Y88.925 E0.01681
G1 X155.680 Y111.085 E0.98521
G1 X155.680 Y111.620 E0.01681
G1 X132.985 Y88.925 E1.00898
G1 X132.451 Y88.925 E0.01681
G1 X155.680 Y112.154 E1.03275
G1 X155.680 Y112.689 E0.01681
G1 X131.916 Y88.925 E1.05652
G1 X131.381 Y88.925 E0.01681
G1 X155.680 Y113.224 E1.08029
M73 P1 R79
G1 X155.680 Y113.758 E0.01681
G1 X130.847 Y88.925 E1.10406
G1 X130.312 Y88.925 E0.01681
G1 X155.680 Y114.293 E1.12783
G1 X155.680 Y114.828 E0.01681
G1 X129.777 Y88.925 E1.15161
G1 X129.243 Y88.925 E0.01681
G1 X155.680 Y115.362 E1.17538
G1 X155.680 Y115.897 E0.01681
G1 X128.708 Y88.925 E1.19915
G1 X128.173 Y88.925 E0.01681
G1 X155.680 Y116.432 E1.22292
G1 X155.680 Y116.967 E0.01681
G1 X127.638 Y88.925 E1.24669
G1 X127.104 Y88.925 E0.01681
G1 X155.641 Y117.462 E1.26873
G1 X155.615 Y117.761 E0.00941
G1 X155.571 Y117.926 E0.00540
G1 X126.569 Y88.925 E1.28937
M73 Q1 S79
G1 X126.034 Y88.925 E0.01681
G1 X155.458 Y118.348 E1.30811
M73 P2 R79
M73 Q2 S79
G1 X155.299 Y118.725 E0.01284
G1 X125.500 Y88.925 E1.32485
G1 X124.965 Y88.925 E0.01681
G1 X155.127 Y119.086 E1.34093
G1 X154.906 Y119.401 E0.01207
G1 X124.430 Y88.925 E1.35491
G1 X123.896 Y88.925 E0.01681
G1 X154.675 Y119.704 E1.36839
G1 X154.408 Y119.971 E0.01189
G1 X123.361 Y88.925 E1.38028
G1 X122.826 Y88.925 E0.01681
G1 X154.122 Y120.220 E1.39134
G1 X153.807 Y120.440 E0.01207
G1 X122.292 Y88.925 E1.40113
G1 X121.757 Y88.925 E0.01681
G1 X153.464 Y120.632 E1.40964
G1 X153.099 Y120.802 E0.01265
G1 X121.222 Y88.925 E1.41720
G1 X120.688 Y88.925 E0.01681
G1 X152.687 Y120.924 E1.42264
G1 X152.366 Y121.010 E0.01046
G1 X152.249 Y121.020 E0.00369
G1 X120.153 Y88.925 E1.42692
G1 X119.618 Y88.925 E0.01681
G1 X151.757 Y121.063 E1.42883
G1 X151.234 Y121.075 E0.01645
G1 X119.084 Y88.925 E1.42935
G1 X118.549 Y88.925 E0.01681
G1 X150.699 Y121.075 E1.42935
G1 X150.165 Y121.075 E0.01681
G1 X118.014 Y88.925 E1.42935
G1 X117.480 Y88.925 E0.01681
G1 X149.630 Y121.075 E1.42935
G1 X149.095 Y121.075 E0.01681
G1 X116.945 Y88.925 E1.42935
G1 X116.410 Y88.925 E0.01681
G1 X148.561 Y121.075 E1.42935
M73 P2 R78
G1 X148.026 Y121.075 E0.01681
G1 X115.876 Y88.925 E1.42935
G1 X115.341 Y88.925 E0.01681
G1 X147.491 Y121.075 E1.42935
G1 X146.957 Y121.075 E0.01681
G1 X114.806 Y88.925 E1.42935
G1 X114.272 Y88.925 E0.01681
G1 X146.422 Y121.075 E1.42935
M73 P3 R78
M73 Q3 S79
G1 X145.887 Y121.075 E0.01681
G1 X113.737 Y88.925 E1.42935
G1 X113.202 Y88.925 E0.01681
G1 X145.352 Y121.075 E1.42935
G1 X144.818 Y121.075 E0.01681
G1 X112.668 Y88.925 E1.42935
G1 X112.133 Y88.925 E0.01681
G1 X144.283 Y121.075 E1.42935
M73 Q3 S78
G1 X143.748 Y121.075 E0.01681
G1 X111.598 Y88.925 E1.42935
G1 X111.064 Y88.925 E0.01681
G1 X143.214 Y121.075 E1.42935
G1 X142.679 Y121.075 E0.01681
G1 X110.529 Y88.925 E1.42935
G1 X109.994 Y88.925 E0.01681
G1 X142.144 Y121.075 E1.42935
G1 X141.610 Y121.075 E0.01681
G1 X109.460 Y88.925 E1.42935
G1 X108.925 Y88.925 E0.01681
G1 X141.075 Y121.075 E1.42935
G1 X140.540 Y121.075 E0.01681
G1 X108.390 Y88.925 E1.42935
G1 X107.855 Y88.925 E0.01681
G1 X140.006 Y121.075 E1.42935
G1 X139.471 Y121.075 E0.01681
G1 X107.321 Y88.925 E1.42935
G1 X106.786 Y88.925 E0.01681
G1 X138.936 Y121.075 E1.42935
G1 X138.402 Y121.075 E0.01681
G1 X106.251 Y88.925 E1.42935
G1 X105.717 Y88.925 E0.01681
G1 X137.867 Y121.075 E1.42935
G1 X137.332 Y121.075 E0.01681
G1 X105.182 Y88.925 E1.42935
G1 X104.647 Y88.925 E0.01681
G1 X136.798 Y121.075 E1.42935
G1 X136.263 Y121.075 E0.01681
G1 X104.113 Y88.925 E1.42935
G1 X103.578 Y88.925 E0.01681
G1 X135.728 Y121.075 E1.42935
G1 X135.194 Y121.075 E0.01681
G1 X103.043 Y88.925 E1.42935
M73 P4 R78
M73 Q4 S78
G1 X102.509 Y88.925 E0.01681
G1 X134.659 Y121.075 E1.42935
M73 P4 R77
G1 X134.124 Y121.075 E0.01681
G1 X101.974 Y88.925 E1.42935
G1 X101.439 Y88.925 E0.01681
G1 X133.590 Y121.075 E1.42935
G1 X133.055 Y121.075 E0.01681
G1 X100.905 Y88.925 E1.42935
G1 X100.370 Y88.925 E0.01681
G1 X132.520 Y121.075 E1.42935
G1 X131.986 Y121.075 E0.01681
G1 X99.835 Y88.925 E1.42935
G1 X99.301 Y88.925 E0.01681
G1 X131.451 Y121.075 E1.42935
G1 X130.916 Y121.075 E0.01681
G1 X98.766 Y88.925 E1.42935
G1 X98.243 Y88.937 E0.01644
G1 X130.382 Y121.075 E1.42883
M73 Q4 S77
G1 X129.847 Y121.075 E0.01681
G1 X97.751 Y88.980 E1.42692
G1 X97.634 Y88.990 E0.00369
G1 X97.313 Y89.076 E0.01046
G1 X129.312 Y121.075 E1.42264
G1 X128.778 Y121.075 E0.01681
G1 X96.901 Y89.198 E1.41720
G1 X96.536 Y89.368 E0.01265
G1 X128.243 Y121.075 E1.40964
G1 X127.708 Y121.075 E0.01681
G1 X96.193 Y89.560 E1.40113
G1 X95.878 Y89.780 E0.01207
G1 X127.173 Y121.075 E1.39134
G1 X126.639 Y121.075 E0.01681
G1 X95.592 Y90.029 E1.38028
G1 X95.325 Y90.296 E0.01189
G1 X126.104 Y121.075 E1.36839
G1 X125.569 Y121.075 E0.01681
G1 X95.094 Y90.599 E1.35491
G1 X94.873 Y90.914 E0.01207
G1 X125.035 Y121.075 E1.34093
G1 X124.500 Y121.075 E0.01681
G1 X94.700 Y91.275 E1.32485
G1 X94.542 Y91.652 E0.01284
G1 X123.965 Y121.075 E1.30811
M73 P5 R77
M73 Q5 S77
G1 X123.431 Y121.075 E0.01681
G1 X94.429 Y92.074 E1.28936
G1 X94.385 Y92.239 E0.00539
G1 X94.359 Y92.538 E0.00942
G1 X122.896 Y121.075 E1.26873
G1 X122.361 Y121.075 E0.01681
G1 X94.320 Y93.034 E1.24668
G1 X94.320 Y93.568 E0.01681
G1 X121.827 Y121.075 E1.22291
G1 X121.292 Y121.075 E0.01681
G1 X94.320 Y94.103 E1.19914
G1 X94.320 Y94.638 E0.01681
G1 X120.757 Y121.075 E1.17537
G1 X120.223 Y121.075 E0.01681
G1 X94.320 Y95.172 E1.15160
G1 X94.320 Y95.707 E0.01681
G1 X119.688 Y121.075 E1.12783
M73 P5 R76
G1 X119.153 Y121.075 E0.01681
G1 X94.320 Y96.242 E1.10406
G1 X94.320 Y96.776 E0.01681
G1 X118.619 Y121.075 E1.08029
G1 X118.084 Y121.075 E0.01681
G1 X94.320 Y97.311 E1.05652
G1 X94.320 Y97.846 E0.01681
G1 X117.549 Y121.075 E1.03275
G1 X117.015 Y121.075 E0.01681
G1 X94.320 Y98.380 E1.00898
G1 X94.320 Y98.915 E0.01681
G1 X116.480 Y121.075 E0.98520
G1 X115.945 Y121.075 E0.01681
G1 X94.320 Y99.450 E0.96143
G1 X94.320 Y99.984 E0.01681
G1 X115.411 Y121.075 E0.93766
G1 X114.876 Y121.075 E0.01681
G1 X94.320 Y100.519 E0.91389
G1 X94.320 Y101.054 E0.01681
G1 X114.341 Y121.075 E0.89012
M73 Q5 S76
G1 X113.807 Y121.075 E0.01681
G1 X94.320 Y101.588 E0.86635
G1 X94.320 Y102.123 E0.01681
G1 X113.272 Y121.075 E0.84258
G1 X112.737 Y121.075 E0.01681
G1 X94.320 Y102.658 E0.81881
G1 X94.320 Y103.192 E0.01681
G1 X112.203 Y121.075 E0.79504
G1 X111.668 Y121.075 E0.01681
G1 X94.320 Y103.727 E0.77127
G1 X94.320 Y104.262 E0.01681
G1 X111.133 Y121.075 E0.74750
G1 X110.599 Y121.075 E0.01681
G1 X94.320 Y104.796 E0.72372
G1 X94.320 Y105.331 E0.01681
G1 X110.064 Y121.075 E0.69995
G1 X109.529 Y121.075 E0.01681
G1 X94.320 Y105.866 E0.67618
G1 X94.320 Y106.400 E0.01681
G1 X108.995 Y121.075 E0.65241
G1 X108.460 Y121.075 E0.01681
G1 X94.320 Y106.935 E0.62864
G1 X94.320 Y107.470 E0.01681
G1 X107.925 Y121.075 E0.60487
G1 X107.390 Y121.075 E0.01681
G1 X94.320 Y108.005 E0.58110
M73 P6 R76
G1 X94.320 Y108.539 E0.01681
G1 X106.856 Y121.075 E0.55733
M73 Q6 S76
G1 X106.321 Y121.075 E0.01681
G1 X94.320 Y109.074 E0.53356
G1 X94.320 Y109.609 E0.01681
G1 X105.786 Y121.075 E0.50979
G1 X105.252 Y121.075 E0.01681
G1 X94.320 Y110.143 E0.48602
G1 X94.320 Y110.678 E0.01681
G1 X104.717 Y121.075 E0.46225
G1 X104.182 Y121.075 E0.01681
G1 X94.320 Y111.213 E0.43847
G1 X94.320 Y111.747 E0.01681
G1 X103.648 Y121.075 E0.41470
G1 X103.113 Y121.075 E0.01681
G1 X94.320 Y112.282 E0.39093
G1 X94.320 Y112.817 E0.01681
G1 X102.578 Y121.075 E0.36716
G1 X102.044 Y121.075 E0.01681
G1 X94.320 Y113.351 E0.34339
G1 X94.320 Y113.886 E0.01681
G1 X101.509 Y121.075 E0.31962
G1 X100.974 Y121.075 E0.01681
G1 X94.320 Y114.421 E0.29585
G1 X94.320 Y114.955 E0.01681
G1 X100.440 Y121.075 E0.27208
G1 X99.905 Y121.075 E0.01681
G1 X94.320 Y115.490 E0.24831
G1 X94.320 Y116.025 E0.01681
G1 X99.370 Y121.075 E0.22454
G1 X98.836 Y121.075 E0.01681
G1 X94.320 Y116.559 E0.20077
G1 X94.327 Y117.101 E0.01704
G1 X98.294 Y121.068 E0.17635
G1 X97.708 Y121.017 E0.01849
G1 X94.378 Y117.687 E0.14802
